icons/lines/pen-tool-two-one.svg

<svg xmlns="http://www.w3.org/2000/svg" width="24" height="24" viewBox="0 0 24 24" fill="none" stroke="currentColor" stroke-width="2" stroke-linecap="round" stroke-linejoin="round" >
  <path d="M10.7498 22.5H13.2698C14.2298 22.5 14.8498 21.82 14.6698 20.99L14.2598 19.1801H9.75983L9.34984 20.99C9.16984 21.77 9.84983 22.5 10.7498 22.5Z"/>
  <path d="M14.2601 19.1701L15.9901 17.63C16.9601 16.77 17.0001 16.17 16.2301 15.2L13.18 11.33C12.54 10.52 11.4901 10.52 10.8501 11.33L7.80006 15.2C7.03006 16.17 7.03005 16.8 8.04005 17.63L9.77006 19.1701"/>
  <path d="M12.0103 11.12V13.65"/>
  <path d="M12.52 5H11.52C10.97 5 10.52 4.55 10.52 4V3C10.52 2.45 10.97 2 11.52 2H12.52C13.07 2 13.52 2.45 13.52 3V4C13.52 4.55 13.07 5 12.52 5Z"/>
  <path d="M3.27002 14.17H4.27002C4.82002 14.17 5.27002 13.72 5.27002 13.17V12.17C5.27002 11.62 4.82002 11.17 4.27002 11.17H3.27002C2.72002 11.17 2.27002 11.62 2.27002 12.17V13.17C2.27002 13.72 2.72002 14.17 3.27002 14.17Z"/>
  <path d="M20.73 14.17H19.73C19.18 14.17 18.73 13.72 18.73 13.17V12.17C18.73 11.62 19.18 11.17 19.73 11.17H20.73C21.28 11.17 21.73 11.62 21.73 12.17V13.17C21.73 13.72 21.28 14.17 20.73 14.17Z"/>
  <path d="M10.52 3.56C6.71 4.01 3.75 7.23998 3.75 11.17"/>
  <path d="M20.25 11.17C20.25 7.24998 17.31 4.03 13.52 3.56"/>
  </svg>

<svg xmlns="http://www.w3.org/2000/svg" width="24" height="24" viewBox="0 0 24 24" fill="none" stroke="currentColor" stroke-width="2" stroke-linecap="round" stroke-linejoin="round">
  <path d="M10.52 3.56a7.67 7.67 0 0 0-6.77 7.61" />
  <path d="M12.01 11.12v2.53" />
  <path d="M13.27 22.5c.96 0 1.58-.68 1.4-1.51l-.41-1.81h-4.5l-.41 1.81c-.18.78.5 1.51 1.4 1.51z" />
  <path d="m14.26 19.17 1.73-1.54c.97-.86 1.01-1.46.24-2.43l-3.05-3.87c-.64-.81-1.69-.81-2.33 0L7.8 15.2c-.77.97-.77 1.6.24 2.43l1.73 1.54" />
  <path d="M20.25 11.17a7.674 7.674 0 0 0-6.73-7.61" />
  <rect x="10.52" y="2" width="3" height="3" rx="1" />
  <rect x="18.73" y="11.17" width="3" height="3" rx="1" />
  <rect x="2.27" y="11.17" width="3" height="3" rx="1" />
</svg>
